svg/furkot/freepik/brewery.svg

<svg viewBox="0 0 512 512" xmlns="http://www.w3.org/2000/svg"><path d="m414.643 218.88h-23.321c-4.813 0-9.472.486-14.029 1.331v-52.659c0-2.867-.333-5.658-.845-8.371 15.334-11.341 25.37-29.389 25.37-49.869 0-38.144-35.124-68.736-73.805-61.082-12.8-13.465-31.053-21.068-49.818-20.121-11.981-17.357-31.923-28.109-53.197-28.109-17.28 0-33.612 6.861-45.644 18.79-3.2-1.305-6.477-2.355-9.805-3.123l-4.199-.819c-3.225-.512-6.451-.794-9.753-.845-4.839-.384-9.498-.358-14.08.026h-1.255v.102c-27.494 2.765-50.662 19.047-59.75 41.754-27.008 5.12-47.488 28.902-47.488 57.318 0 19.84 9.984 37.325 25.139 47.872-.307 2.125-.64 4.25-.64 6.477v315.11c0 23.168 18.842 42.036 42.01 42.036h235.725c23.168 0 42.035-18.842 42.035-42.036v-64.358c4.557.845 9.216 1.357 14.029 1.357h23.321c42.471 0 77.031-34.586 77.031-77.056v-46.643c0-42.496-34.56-77.082-77.031-77.082zm-65.382 263.782c0 7.732-6.247 14.004-14.003 14.004h-235.725c-7.731 0-14.003-6.272-14.003-14.004v-315.11c0-7.731 6.272-14.003 14.003-14.003h235.725c7.756 0 14.003 6.272 14.003 14.003zm12.467-347.494c-7.219-5.939-16.384-9.651-26.47-9.651h-235.725c-10.675 0-20.301 4.121-27.725 10.675-6.554-5.555-10.778-13.747-10.778-22.989 0-16.665 13.543-30.259 30.234-30.31l11.469-.051 2.227-11.239c2.611-13.158 16.256-27.059 37.171-29.491h15.437c6.272.435 12.314 2.483 17.638 5.99l11.572 7.655 7.756-11.495c6.861-10.163 18.253-16.256 30.49-16.256 14.234 0 26.88 8.064 33.075 21.069l4.711 9.907 10.752-2.201c14.617-2.944 29.542 3.174 37.836 15.283l6.119 9.011 10.24-3.763c4.121-1.51 7.987-2.253 11.801-2.253 18.868 0 34.253 15.36 34.253 34.253 0 10.368-4.761 19.584-12.083 25.856zm87.936 207.437c0 19.302-15.693 35.021-35.021 35.021h-23.321c-4.992 0-9.728-1.076-14.029-2.97v-110.746c4.301-1.894 9.037-2.969 14.029-2.969h23.321c19.303 0 35.021 15.693 35.021 35.021z"/><path d="m99.533 204.877h235.776v277.785h-235.776z"/></svg>

<svg xmlns="http://www.w3.org/2000/svg" viewBox="0 0 512 512"><path d="M414.643 218.88H391.322C386.509 218.88 381.85 219.366 377.293 220.211V167.552C377.293 164.685 376.96 161.894 376.448 159.181 391.782 147.84 401.818 129.792 401.818 109.312 401.818 71.168 366.694 40.576 328.013 48.23 315.213 34.765 296.96 27.162 278.195 28.109 266.214 10.752 246.272 0 224.998 0 207.718 0 191.386 6.861 179.354 18.79 176.154 17.485 172.877 16.435 169.549 15.667L165.35 14.848C162.125 14.336 158.899 14.054 155.597 14.003 150.758 13.619 146.099 13.645 141.517 14.029H140.262V14.131C112.768 16.896 89.6 33.178 80.512 55.885 53.504 61.005 33.024 84.787 33.024 113.203 33.024 133.043 43.008 150.528 58.163 161.075 57.856 163.2 57.523 165.325 57.523 167.552V482.662C57.523 505.83 76.365 524.698 99.533 524.698H335.258C358.426 524.698 377.293 505.856 377.293 482.662V418.304C381.85 419.149 386.509 419.661 391.322 419.661H414.643C457.114 419.661 491.674 385.075 491.674 342.605V295.962C491.674 253.466 457.114 218.88 414.643 218.88ZM349.261 482.662C349.261 490.394 343.014 496.666 335.258 496.666H99.533C91.802 496.666 85.53 490.394 85.53 482.662V167.552C85.53 159.821 91.802 153.549 99.533 153.549H335.258C343.014 153.549 349.261 159.821 349.261 167.552V482.662ZM361.728 135.168L361.728 135.168C354.509 129.229 345.344 125.517 335.258 125.517H99.533C88.858 125.517 79.232 129.638 71.808 136.192 65.254 130.637 61.03 122.445 61.03 113.203 61.03 96.538 74.573 82.944 91.264 82.893L102.733 82.842 104.96 71.603C107.571 58.445 121.216 44.544 142.131 42.112H157.568C163.84 42.547 169.882 44.595 175.206 48.102L186.778 55.757 194.534 44.262C201.395 34.099 212.787 28.006 225.024 28.006 239.258 28.006 251.904 36.07 258.099 49.075L262.81 58.982 273.562 56.781C288.179 53.837 303.104 59.955 311.398 72.064L317.517 81.075 327.757 77.312C331.878 75.802 335.744 75.059 339.558 75.059 358.426 75.059 373.811 90.419 373.811 109.312 373.811 119.68 369.05 128.896 361.728 135.168ZM449.664 342.605C449.664 361.907 433.971 377.626 414.643 377.626H391.322C386.33 377.626 381.594 376.55 377.293 374.656V263.91C381.594 262.016 386.33 260.941 391.322 260.941H414.643C433.946 260.941 449.664 276.634 449.664 295.962V342.605Z"/><path d="M99.533 204.877H335.309V482.662H99.533Z"/></svg>
